img/IG.svg

<?xml version="1.0" standalone="no"?>
<!DOCTYPE svg PUBLIC "-//W3C//DTD SVG 1.0//EN" "http://www.w3.org/TR/2001/REC-SVG-20010904/DTD/svg10.dtd">
<svg xmlns="http://www.w3.org/2000/svg" xmlns:xlink="http://www.w3.org/1999/xlink" id="body_1" width="1024" height="768">

<g transform="matrix(1.5 0 0 1.5 128.00003 -0)">
	<g>
        <path d="M505 257C 505 292.8 505.1 328.6 505 364.5C 504.8 416.5 480.6 455 437.4 482.2C 412.1 498 384 505 354.2 505C 289 505 223.90001 505.3 158.70001 504.9C 113.40001 504.6 74.40001 488.6 43.500015 455C 24.400015 434.2 13.000015 409.7 9.700016 381.4C 9.000016 375.4 8.900016 369.5 8.900016 363.5C 8.900016 292.2 8.800015 220.9 8.900016 149.6C 9.2 97.5 33.4 59 76.6 31.8C 102.1 15.9 130.3 9 160.3 9C 225.3 9 290.3 8.7 355.3 9.1C 400.8 9.400001 439.9 25.5 470.8 59.300003C 489.69998 80 501 104.5 504.19998 132.5C 505.49997 143.5 504.9 154.5 504.99997 165.4C 505.1 196 505 226.5 505 257zM46 257C 46 293.7 45.9 330.3 46 367C 46.1 392.2 55.3 413.9 72.5 431.9C 95.6 456 124.4 467.69998 157.5 467.9C 223.2 468.3 288.8 468 354.5 468C 375.7 468 395.9 463.4 414.3 452.8C 448.69998 433.09998 468.09998 404.09998 468.09998 363.5C 468.09998 291.3 468.09998 219.2 468.09998 147C 468.09998 122 458.99997 100.4 441.89996 82.5C 418.99997 58.3 390.09998 46.4 357.09998 46.2C 290.7 45.7 224.4 46 158 46C 137.3 46 117.7 50.9 99.7 61.1C 65.4 80.9 45.9 109.9 46 150.5C 46 186 46 221.5 46 257z" stroke="none" fill="#A7A7A7" fill-rule="nonzero" />
        <path d="M257.3 363C 192.69998 363 140.9 311.4 140.99998 247C 141.09999 184.3 193.59998 132.9 257.69998 133C 322.09998 133 374.09998 184.7 374 248.5C 373.9 311.7 321.6 363 257.3 363zM257.3 326C 301.19998 326 337 291.1 337 248.2C 337 205.1 301.5 170 257.7 170C 213.80002 170 178.00002 204.9 178.00002 247.8C 178 290.9 213.5 326 257.3 326z" stroke="none" fill="#A7A7A7" fill-rule="nonzero" />
        <path d="M363 123.6C 363 109.4 373.9 98 387.5 98C 401.1 98 412 109.5 412 123.6C 412 137.5 401.1 148.9 387.7 149C 374.1 149.1 363 137.8 363 123.6z" stroke="none" fill="#A7A7A7" fill-rule="nonzero" />
	</g>
</g>
</svg>

<?xml version="1.0" ?><!DOCTYPE svg  PUBLIC '-//W3C//DTD SVG 1.1//EN'  'http://www.w3.org/Graphics/SVG/1.1/DTD/svg11.dtd'><svg enable-background="new 0 0 512 512" id="Layer_1" version="1.1" viewBox="0 0 512 512" xml:space="preserve" xmlns="http://www.w3.org/2000/svg" xmlns:xlink="http://www.w3.org/1999/xlink"><g><path d="M505,257c0,35.8,0.1,71.6,0,107.5c-0.2,52-24.4,90.5-67.6,117.7C412.1,498,384,505,354.2,505   c-65.2,0-130.3,0.3-195.5-0.1c-45.3-0.3-84.3-16.3-115.2-49.9c-19.1-20.8-30.5-45.3-33.8-73.6c-0.7-6-0.8-11.9-0.8-17.9   c0-71.3-0.1-142.6,0-213.9C9.2,97.5,33.4,59,76.6,31.8C102.1,15.9,130.3,9,160.3,9c65,0,130-0.3,195,0.1   c45.5,0.3,84.6,16.4,115.5,50.2c18.9,20.7,30.2,45.2,33.4,73.2c1.3,11,0.7,22,0.8,32.9C505.1,196,505,226.5,505,257z M46,257   c0,36.7-0.1,73.3,0,110c0.1,25.2,9.3,46.9,26.5,64.9c23.1,24.1,51.9,35.8,85,36c65.7,0.4,131.3,0.1,197,0.1   c21.2,0,41.4-4.6,59.8-15.2c34.4-19.7,53.8-48.7,53.8-89.3c0-72.2,0-144.3,0-216.5c0-25-9.1-46.6-26.2-64.5   c-22.9-24.2-51.8-36.1-84.8-36.3C290.7,45.7,224.4,46,158,46c-20.7,0-40.3,4.9-58.3,15.1C65.4,80.9,45.9,109.9,46,150.5   C46,186,46,221.5,46,257z" fill="#A7A7A7"/><path d="M257.3,363c-64.6,0-116.4-51.6-116.3-116c0.1-62.7,52.6-114.1,116.7-114c64.4,0,116.4,51.7,116.3,115.5   C373.9,311.7,321.6,363,257.3,363z M257.3,326c43.9,0,79.7-34.9,79.7-77.8c0-43.1-35.5-78.2-79.3-78.2c-43.9,0-79.7,34.9-79.7,77.8   C178,290.9,213.5,326,257.3,326z" fill="#A7A7A7"/><path d="M363,123.6c0-14.2,10.9-25.6,24.5-25.6c13.6,0,24.5,11.5,24.5,25.6c0,13.9-10.9,25.3-24.3,25.4   C374.1,149.1,363,137.8,363,123.6z" fill="#A7A7A7"/></g></svg>
